X:1
T:Our Message
T:Isaac Hickman Meredith
T:Our Message
T:Public Domain
T:Public Domain
T:Public Domain
C:Isaac Hickman Meredith
Z:Public Domain
%%score ( 1 2 ) ( 3 4 )
L:1/8
M:4/4
K:F
V:1 treble 
V:2 treble 
V:3 bass 
V:4 bass 
V:1
 [CFA]2 [A,CA]2 [B,DA]2 [B,CEG]2 | [A,CF]4 [A,C]4 | [CAc]2 [CFc]2 [CEc]2 [CGB]2 | [CFA]6 z2 | %4
w: 1.~Joy is in our|mess- age!|Peal the Christ- mas|bells!|
w: 2.~Peace we soft- ly|e- cho|In our sil- very|chime,|
w: 3.~Now good will we’re|sound- ing,|In a might- y|strain!|
 [DFd]2 [DFd]2 [D^Fd]2 [DAc]2 | [DGc]4 [DGB]4 | [=B,FA]2 [B,FG]2 [B,FG]2 [B,D]2 | %7
w: Joy, great joy re-|e- choes|From the glo- ry|
w: O’er the world’s great|mid- night|Soft- ly steal- ing,|
w: Like the an- gel|chor- us|From the glo- ry|
 [B,EA]2 [B,EG]2 [B,E]2 [B,C]2 | [CFA]2 [A,CA]2 [B,DA]2 [B,CEG]2 | [A,CF]4 [F,A,]4 | %10
w: in the sto- ry|Which our chimes are|tell- ing,|
w: sweet- ly peal- ing,|Glor- ious news we’re|bring- ing|
w: with the sto- ry,|Sung that Christ- mas|morn- ing|
 [CAc]2 [CFc]2 [CEc]2 [CGB]2 | [CFA]6 z2 | [DFd]2 [D^FA]2 [DGB]2 [B,DG]2 | %13
w: As the mu- sic|swells;|Ring- ing, ring- ing,|
w: At the Christ- mas|time!|Now in- creas- ing,|
w: O- ver Beth- le’em’s|plain;|Swell- ing, sound- ing,|
 [CGc]2 [CEG]2 [CFA]2 [CF]2 | [DG]2 [Fd]2 [Fc]2 [CE]2 | [A,CF]6 ||"^Refrain" C2 | [FAc]4 [EBc]4 | %18
w: new joy bring- ing,|Peal the Christ- mas|bells.|||
w: ne- ver ceas- ing,|In our song sub-|lime.|To|ev- ery|
w: still re- sound- ing,|As we peal a-|gain.|||
 [FAc]6 (Bc) | !>![FBd]4 !>![^Fcd]4 | !>![GBd]6 [Bd][df] | [df]2 [ce]2 [ce]2 [GB]2 | %22
w: ||||
w: land in *|an- them|grand, From the|north- ern i- cy|
w: ||||
 [Bd]6 [Bd][Be] | [Ae]2 [Ad]2 [Ad]2 [FA]2 | [Ac]6 C2 | !>![FAc]4 !>![EBc]4 | !>![FAc]6 Bc | %27
w: |||||
w: tow’rs To the|sun- set land of|flow’rs; O’er|ev- ery|sea, to the|
w: |||||
 !>![FBd]4 !>![^Fcd]4 | !>![GBd]6 de | [Ff]2 [Ff]2 [Fe]2 [Fd]2 | [Fd]2 [Fc]2 [FB]2 [FA]2 | %31
w: ||||
w: bond and|free, We re-|peat the song of|an- gel throng; The|
w: ||||
 [FA]2 [FG]2 [EA]2 [EG]2 | F6 z2 |] %33
w: ||
w: Sav- ior now is|ours!|
w: ||
V:2
 x8 | x8 | x8 | x8 | x8 | x8 | x8 | x8 | x8 | x8 | x8 | x8 | x8 | x8 | x8 | x6 || x2 | x8 | x8 | %19
 x8 | x8 | x8 | x8 | x8 | x8 | x8 | x8 | x8 | x8 | x8 | x8 | x8 | F6 x2 |] %33
V:3
 [F,,F,]2 [C,,C,]2 [G,,G,]2 [C,,C,]2 | ([F,,F,]2 [C,,C,]2) ([F,,F,]2 [C,,C,]2) | %2
 [F,,F,]2 [A,,A,]2 [G,,G,]2 [C,,C,]2 | ([F,,F,]2 [C,,C,]2 [F,,F,]2 [A,,A,]2) | %4
 [B,,B,]2 [B,,B,]2 [A,,A,]2 [D,,D,]2 | ([G,,G,]2 [D,,D,]2) ([G,,G,]2 [D,,D,]2) | %6
 [G,,,G,,]4 [G,,,G,,]4 | [C,,C,]4 [C,,C,]2 [E,,E,]2 | [F,,F,]2 [C,,C,]2 [G,,G,]2 [C,,C,]2 | %9
 ([F,,F,]2 [C,,C,]2) ([F,,F,]2 [C,,C,]2) | [F,,F,]2 [A,,A,]2 [G,,G,]2 [C,,C,]2 | %11
 ([F,,F,]2 [C,,C,]2 [F,,F,]2 [A,,A,]2) | [B,,B,]2 [D,,D,]2 [G,,G,]2 ([G,,G,][F,,F,]) | %13
 [E,,E,]2 [C,,C,]2 [F,,F,]2 [A,,A,]2 | [B,,B,]2 [=B,,^G,]2 [C,A,]2 [C,=G,]2 | (F,2 .C,2 .F,,2) || %16
 z2 | (!>![F,,F,]2 !>![A,,A,]2) (!>![G,,G,]2 !>![B,,B,]2) | %18
 (!>![A,,A,]2 !>![G,,G,]2 !>![F,,F,]2) z2 | (!>![B,,B,]2 !>![D,D]2) (!>![C,C]2 !>![A,,A,]2) | %20
 (!>![B,,B,]2 !>![A,,A,]2 !>![G,,G,]2) z2 | A,,2 [B,CE]2 G,2 [B,CE]2 | %22
 (C,2 [B,CE]2 [B,CE]2) [B,CE]2 | F,2 [A,CF]2 C,2 [A,C]2 | (F,2 [A,CF]2 [A,CF]2) z2 | %25
 (!>![F,,F,]2 !>![A,,A,]2) (!>![G,,G,]2 !>![B,,B,]2) | (!>![A,,A,]2 !>![G,,G,]2 !>![F,,F,]2) z2 | %27
 (!>![B,,B,]2 !>![D,D]2) (!>![C,C]2 !>![A,,A,]2) | (!>![B,,B,]2 !>![A,,A,]2 !>![G,,G,]2) z2 | %29
 [=B,,^A,]2 [B,,G,]2 [B,,G,]2 [B,,G,]2 | [C,A,]2 [C,A,]2 [C,D]2 [C,C]2 | %31
 [D,=B,]2 [G,,B,]2 [C,C]2 [C,_B,]2 | (z4 C,2 F,,2) |] %33
V:4
 x8 | x8 | x8 | x8 | x8 | x8 | x8 | x8 | x8 | x8 | x8 | x8 | x8 | x8 | x8 | x6 || x2 | x8 | x8 | %19
 x8 | x8 | x8 | x8 | x8 | x8 | x8 | x8 | x8 | x8 | x8 | x8 | x8 | [F,A,]6 x2 |] %33

